neru-light-classic/32x32/apps/kicad.svg

<?xml version="1.0" encoding="UTF-8" standalone="no"?>
<svg
   xmlns:dc="http://purl.org/dc/elements/1.1/"
   xmlns:cc="http://creativecommons.org/ns#"
   xmlns:rdf="http://www.w3.org/1999/02/22-rdf-syntax-ns#"
   xmlns:svg="http://www.w3.org/2000/svg"
   xmlns="http://www.w3.org/2000/svg"
   xmlns:sodipodi="http://sodipodi.sourceforge.net/DTD/sodipodi-0.dtd"
   xmlns:inkscape="http://www.inkscape.org/namespaces/inkscape"
   height="32"
   width="32"
   version="1"
   id="svg22"
   sodipodi:docname="kicad.svg"
   inkscape:version="0.92.2 2405546, 2018-03-11">
  <metadata
     id="metadata28">
    <rdf:RDF>
      <cc:Work
         rdf:about="">
        <dc:format>image/svg+xml</dc:format>
        <dc:type
           rdf:resource="http://purl.org/dc/dcmitype/StillImage" />
      </cc:Work>
    </rdf:RDF>
  </metadata>
  <defs
     id="defs26" />
  <sodipodi:namedview
     pagecolor="#ffffff"
     bordercolor="#666666"
     borderopacity="1"
     objecttolerance="10"
     gridtolerance="10"
     guidetolerance="10"
     inkscape:pageopacity="0"
     inkscape:pageshadow="2"
     inkscape:window-width="1680"
     inkscape:window-height="972"
     id="namedview24"
     showgrid="false"
     inkscape:zoom="10.429825"
     inkscape:cx="-5.9669199"
     inkscape:cy="19.660833"
     inkscape:window-x="0"
     inkscape:window-y="0"
     inkscape:window-maximized="1"
     inkscape:current-layer="svg22" />
  <text
     xml:space="preserve"
     style="font-style:normal;font-weight:normal;font-size:40px;line-height:1.25;font-family:sans-serif;letter-spacing:0px;word-spacing:0px;fill:#000000;fill-opacity:1;stroke:none"
     x="-53.830509"
     y="24.677965"
     id="text4525"><tspan
       sodipodi:role="line"
       id="tspan4523"
       x="-53.830509"
       y="60.068588" /></text>
  <rect
     ry="5.575182"
     y="1.8983059"
     x="1.8983059"
     height="28.203388"
     width="28.203388"
     id="rect4497-3"
     style="font-style:normal;font-weight:normal;font-size:medium;line-height:1.25;font-family:sans-serif;letter-spacing:0px;word-spacing:0px;opacity:1;fill:#46729d;fill-opacity:1;fill-rule:evenodd;stroke:none;stroke-width:1.03534329;stroke-linecap:round;stroke-linejoin:bevel;stroke-miterlimit:4;stroke-dasharray:none;stroke-dashoffset:0;stroke-opacity:1" />
  <g
     aria-label="K"
     style="font-style:normal;font-weight:normal;font-size:27.73773766px;line-height:1.25;font-family:sans-serif;letter-spacing:0px;word-spacing:0px;fill:#ffffff;fill-opacity:1;stroke:none;stroke-width:0.69344342"
     id="text4521">
    <path
       style="font-style:normal;font-variant:normal;font-weight:normal;font-stretch:normal;font-family:'Blue Highway';-inkscape-font-specification:'Blue Highway';fill:#ffffff;stroke-width:0.69344342"
       d="M 6.1035156 8.3242188 L 6.1035156 23.691406 L 9.2382812 23.691406 L 9.2382812 20.279297 L 11.791016 17.255859 L 15.617188 23.691406 L 19.501953 23.691406 L 13.705078 14.871094 L 19.085938 8.3242188 L 15.5625 8.3242188 L 9.2382812 16.589844 L 9.2382812 8.3242188 L 6.1035156 8.3242188 z M 21.902344 13.574219 L 21.902344 23.751953 L 25.558594 23.751953 L 25.558594 13.574219 L 21.902344 13.574219 z "
       id="path4493" />
  </g>
  <path
     sodipodi:nodetypes="scssssscs"
     id="path4563-0"
     style="font-style:normal;font-variant:normal;font-weight:normal;font-stretch:normal;font-size:36.55134583px;line-height:1.25;font-family:'Blue Highway';-inkscape-font-specification:'Blue Highway';letter-spacing:0px;word-spacing:0px;fill:#ff8b00;fill-opacity:1;stroke:none;stroke-width:0.91378361"
     d="m 23.849041,12.305215 c -0.560454,0 -1.047805,-0.19494 -1.462054,-0.584821 -0.389881,-0.389881 -0.584822,-0.865048 -0.584822,-1.425502 0,-0.584822 0.194941,-1.072173 0.584822,-1.462054 0.389881,-0.389881 0.877232,-0.584822 1.462054,-0.584822 0.584821,0 1.072172,0.194941 1.462053,0.584822 0.389881,0.389881 0.584822,0.877232 0.584822,1.462054 0,0.560454 -0.207124,1.035621 -0.621373,1.425502 -0.389881,0.389881 -0.865048,0.584821 -1.425502,0.584821 z"
     inkscape:connector-curvature="0" />
</svg>

<svg xmlns="http://www.w3.org/2000/svg" height="32" width="32" version="1"><text style="line-height:1.25" x="-53.831" y="24.678" font-weight="400" font-size="40" font-family="sans-serif" letter-spacing="0" word-spacing="0"/><rect ry="5.575" y="1.898" x="1.898" height="28.203" width="28.203" style="line-height:1.25" font-weight="400" font-family="sans-serif" letter-spacing="0" word-spacing="0" fill="#46729d" fill-rule="evenodd"/><g style="line-height:1.25"><path style="-inkscape-font-specification:'Blue Highway'" d="M6.104 8.324v15.367h3.134V20.28l2.553-3.023 3.826 6.435h3.885l-5.797-8.82 5.38-6.547h-3.523L9.239 16.59V8.324H6.104zm15.798 5.25v10.178h3.657V13.574h-3.657z" font-family="Blue Highway" aria-label="K" font-weight="400" font-size="27.738" letter-spacing="0" word-spacing="0" fill="#fff" stroke-width=".693"/></g><path style="line-height:1.25;-inkscape-font-specification:'Blue Highway'" d="M23.849 12.305c-.56 0-1.048-.195-1.462-.585a1.94 1.94 0 0 1-.585-1.425c0-.585.195-1.072.585-1.462.39-.39.877-.585 1.462-.585s1.072.195 1.462.585c.39.39.585.877.585 1.462 0 .56-.207 1.036-.621 1.425a1.94 1.94 0 0 1-1.426.585z" font-weight="400" font-size="36.551" font-family="Blue Highway" letter-spacing="0" word-spacing="0" fill="#ff8b00"/></svg>
